X:119
T:Duke of Lorrain's March. (p)1657.PLFD1.119
M:C
L:1/4
Q:1/2=100
S:Playford, Dancing Master,3rd Ed.,1657
O:England;London
H:1657.
Z:Chris Partington.
K:G
dd/d/dd|d2d2|efgf/e/|f4|
aa/a/aa|g2f2|efgf/e/|f4:|
|:ff/f/ff|f2a2|fe/f/ g/f/e/d/|ef/g/ag|
fe/f/gf|eda/g/f/e/|d2dd|d4:|
